Yaru++/apps/16/preferences-certificates.svg

<svg height="16" viewBox="0 0 16 16" width="16" xmlns="http://www.w3.org/2000/svg"><path d="m8.521307.50000124c-.562343 0-1.033759.3203397-1.250583.77077306-.428052-.2895647-1.025366-.3455192-1.509372-.078337-.485405.262986-.739998.7665768-.692437 1.2561785-.518978-.0042-1.061736.1986385-1.338711.6490718-.281171.4560293-.223818 1.0141753.08813 1.4170475-.479809.2014363-.818334.6476733-.818334 1.1736457 0 .525972.338524.9736079.818334 1.1750442-.30775.4028726-.369299.9568226-.08813 1.4170486.276973.4504323.819733.6924366 1.338711.64907-.04756.4910032.207032.9945924.692437 1.2561794.125897.06853.260189.106299.395878.131492v5.182785l2.368275-2.368276 2.368274 2.368276v-5.170195c.137087-.01665.269978-.05177.395878-.144071.485405-.262984.739998-.7665762.692437-1.2561797.518977.00425 1.061736-.1986378 1.338711-.6490701.281172-.4560307.223816-1.0141759-.08813-1.4170485.479809-.201437.818334-.6490722.818334-1.1750443 0-.5259723-.338524-.9722093-.818334-1.1736456.30775-.4028829.3693-.9568322.08813-1.4170582-.276976-.4504333-.819735-.6924366-1.338712-.6490718.04756-.4910006-.207032-.994591-.692437-1.2561785-.485406-.262986-1.081321-.2098293-1.5093733.078337-.2168227-.45043366-.6882397-.77077306-1.2505827-.77077306h-.0098zm0 1.92203676c1.903852 0 3.453791 1.4520188 3.453791 3.2425624 0 1.7919414-1.545743 3.239765-3.453791 3.239765-1.903851 0-3.452392-1.4492196-3.452392-3.239765 0-1.7919425 1.544344-3.2425624 3.452392-3.2425624zm0 .6490718c-1.523361 0-2.759955 1.1610556-2.759955 2.5934906 0 1.4324339 1.236594 2.592091 2.759955 2.592091s2.761354-1.1596571 2.761354-2.592091c0-1.432435-1.237993-2.5934906-2.761354-2.5934906z" fill="#808080"/></svg>

<svg xmlns="http://www.w3.org/2000/svg" width="16" height="16" version="1.1" viewBox="0 0 16 16">
 <defs>
  <style id="current-color-scheme" type="text/css">
   .ColorScheme-Text { color:#808080; } .ColorScheme-Highlight { color:#5294e2; }
  </style>
 </defs>
 <path style="fill:currentColor;" class="ColorScheme-Text" d="m 8.521307,0.50000124 c -0.562343,0 -1.033759,0.3203397 -1.250583,0.77077306 C 6.842672,0.9812096 6.245358,0.9252551 5.761352,1.1924373 5.275947,1.4554233 5.021354,1.9590141 5.068915,2.4486158 4.549937,2.4444158 4.007179,2.6472543 3.730204,3.0976876 3.449033,3.5537169 3.506386,4.1118629 3.818334,4.5147351 3.338525,4.7161714 3,5.1624084 3,5.6883808 3,6.2143528 3.338524,6.6619887 3.818334,6.863425 3.510584,7.2662976 3.449035,7.8202476 3.730204,8.2804736 c 0.276973,0.4504323 0.819733,0.6924366 1.338711,0.64907 -0.04756,0.4910032 0.207032,0.9945924 0.692437,1.2561794 0.125897,0.06853 0.260189,0.106299 0.395878,0.131492 V 15.5 L 8.525505,13.131724 10.893779,15.5 v -5.170195 c 0.137087,-0.01665 0.269978,-0.05177 0.395878,-0.144071 0.485405,-0.262984 0.739998,-0.7665762 0.692437,-1.2561797 0.518977,0.00425 1.061736,-0.1986378 1.338711,-0.6490701 0.281172,-0.4560307 0.223816,-1.0141759 -0.08813,-1.4170485 0.479809,-0.201437 0.818334,-0.6490722 0.818334,-1.1750443 0,-0.5259723 -0.338524,-0.9722093 -0.818334,-1.1736456 0.30775,-0.4028829 0.3693,-0.9568322 0.08813,-1.4170582 C 13.043829,2.6472543 12.50107,2.405251 11.982093,2.4486158 12.029653,1.9576152 11.775061,1.4540248 11.289656,1.1924373 10.80425,0.9294513 10.208335,0.982608 9.7802827,1.2707743 9.56346,0.82034064 9.092043,0.50000124 8.5297,0.50000124 H 8.5199 Z m 0,1.92203676 c 1.903852,0 3.453791,1.4520188 3.453791,3.2425624 0,1.7919414 -1.545743,3.239765 -3.453791,3.239765 -1.903851,0 -3.452392,-1.4492196 -3.452392,-3.239765 0,-1.7919425 1.544344,-3.2425624 3.452392,-3.2425624 z m 0,0.6490718 c -1.523361,0 -2.759955,1.1610556 -2.759955,2.5934906 0,1.4324339 1.236594,2.592091 2.759955,2.592091 1.523361,0 2.761354,-1.1596571 2.761354,-2.592091 0,-1.432435 -1.237993,-2.5934906 -2.761354,-2.5934906 z"/>
</svg>
